X: 113
T: Hell Broke Loose in Georgia
B: canberra pickers and fiddlers
B: old time tunes update
B: tunes
M:C|
L:1/8
Q: 1/4=100
K:C
V:1 
+slide+"C"[e4e4][e3g3]g-|gbag eg3|+slide+[e2e2]  [ee][ee][e2g2]ga|"G"[eg]edc "C"A[c3e3]|
+slide+"C"[e2e2][ee][ee][e2g2][e2g2]-|[eg]c'ag eg2e-|c'e'2b- ag2e-|"G"eg-ag "C"e[c3e3]||
|:"C"GAae gecA|GAae gecA|GAae gaga|"G"gedc "C"Ac3:|
|:"C"GA3[G2c2][G2c2]-|[Gc][ce][de][ce] [Ae][c3e3]|GAAc [G2c2][Gc]d|"G"cAGE "C"DC3:|
|:"C"[C2E2][CE][CE] A,-C[CE][CD]|[CE][CE][CE][CE] [CD][CE][CD][CE]|[C2E2][CE][CE] [CD]-[CE]EG|"G"cAGE "C"DC3:|
% abcbook-tune_id 67a7d9ec6700759f34e0b021
% abcbook-tune_composer_id 
% abcbook-link-0 https://www.youtube.com/watch?v=J8uYvGeObJ4
% abcbook-link-title-0 Hell Broke Loose In Georgia
% abcbook-boost 0
% abcbook-difficulty 0
% abcbook-tags old time tunes
% abcbook-tablature 
% abcbook-transpose 
% abcbook-tuning GDAE
% abcbook-lastupdated 1739165344625
% abcbook-src-url 
% abcbook-soundfonts 
% abcbook-repeats 1


